www/assets/icons/medical_services.svg

<svg xmlns="http://www.w3.org/2000/svg" width="24" height="24" viewBox="0 0 24 24" fill='currentColor'><path d="M20 6h-4V4c0-1.1-.9-2-2-2h-4c-1.1 0-2 .9-2 2v2H4c-1.1 0-2 .9-2 2v12c0 1.1.9 2 2 2h16c1.1 0 2-.9 2-2V8c0-1.1-.9-2-2-2M10 4h4v2h-4zm6 11h-3v3h-2v-3H8v-2h3v-3h2v3h3z"/></svg>

<svg width="24" height="24" viewBox="0 0 24 24" xmlns="http://www.w3.org/2000/svg" fill='currentColor'><path d="M20 6H16V4C16 2.9 15.1 2 14 2H10C8.9 2 8 2.9 8 4V6H4C2.9 6 2 6.9 2 8V20C2 21.1 2.9 22 4 22H20C21.1 22 22 21.1 22 20V8C22 6.9 21.1 6 20 6ZM10 4H14V6H10V4ZM16 15H13V18H11V15H8V13H11V10H13V13H16V15Z"/></svg>
